plugins/community/repos/LindenbergResearch/res/IOPortB.svg

<?xml version="1.0" encoding="utf-8"?>
<!-- Generator: Adobe Illustrator 16.0.0, SVG Export Plug-In . SVG Version: 6.00 Build 0)  -->
<!DOCTYPE svg PUBLIC "-//W3C//DTD SVG 1.1//EN" "http://www.w3.org/Graphics/SVG/1.1/DTD/svg11.dtd" [
        <!ENTITY ns_extend "http://ns.adobe.com/Extensibility/1.0/">
        <!ENTITY ns_ai "http://ns.adobe.com/AdobeIllustrator/10.0/">
        <!ENTITY ns_graphs "http://ns.adobe.com/Graphs/1.0/">
        <!ENTITY ns_vars "http://ns.adobe.com/Variables/1.0/">
        <!ENTITY ns_imrep "http://ns.adobe.com/ImageReplacement/1.0/">
        <!ENTITY ns_sfw "http://ns.adobe.com/SaveForWeb/1.0/">
        <!ENTITY ns_custom "http://ns.adobe.com/GenericCustomNamespace/1.0/">
        <!ENTITY ns_adobe_xpath "http://ns.adobe.com/XPath/1.0/">
        ]>
<svg version="1.1"
	 xmlns:x="&ns_extend;" xmlns:i="&ns_ai;" xmlns:graph="&ns_graphs;" xmlns:inkscape="http://www.inkscape.org/namespaces/inkscape" xmlns:dc="http://purl.org/dc/elements/1.1/" xmlns:svg="http://www.w3.org/2000/svg" xmlns:cc="http://creativecommons.org/ns#" xmlns:sodipodi="http://sodipodi.sourceforge.net/DTD/sodipodi-0.dtd" xmlns:rdf="http://www.w3.org/1999/02/22-rdf-syntax-ns#" xmlns:xlink="http://www.w3.org/1999/xlink" id="IOPortB" inkscape:version="0.92.2 5c3e80d, 2017-08-06"
	 sodipodi:docname="PJ3410.svg" xmlns="http://www.w3.org/2000/svg" x="0px" y="0px" width="28px" height="28px"
	 viewBox="0 0 28 28" enable-background="new 0 0 28 28" xml:space="preserve">
<metadata>
	<sfw  xmlns="&ns_sfw;">
		<slices></slices>
		<sliceSourceBounds  width="29" height="29" bottomLeftOrigin="true" x="19" y="22"></sliceSourceBounds>
	</sfw>
</metadata>
<g id="IOPortB_3_">
	
		<sodipodi:namedview  units="px" fit-margin-right="0" inkscape:window-y="0" inkscape:current-layer="layer1" inkscape:window-x="1280" inkscape:window-maximized="0" inkscape:window-width="1274" inkscape:window-height="1434" fit-margin-bottom="0" inkscape:pageshadow="2" inkscape:document-units="mm" inkscape:pageopacity="0.0" inkscape:cx="6.9359976" showgrid="false" fit-margin-left="0" inkscape:zoom="3.959798" pagecolor="#ffffff" inkscape:cy="-37.491484" id="base" bordercolor="#666666" fit-margin-top="0" borderopacity="1.0">
		</sodipodi:namedview>
	<g>
		<circle display="none" fill="#2D2D2D" stroke="#3A3A3A" stroke-miterlimit="10" cx="14" cy="14" r="14"/>
		<path fill="#8E8E8E" stroke="#C6C6C6" stroke-miterlimit="10" d="M5.311,22.794c-1.082-1.866-2.151-3.757-3.221-5.619
			c-2.129-3.715-2.129-2.593,0.002-6.312C3.174,8.971,4.253,7.062,5.334,5.17C7.469,1.452,6.5,2.014,10.772,2.021
			c2.136,0.004,4.298,0.008,6.431,0.014c4.266-0.012,3.3-0.575,5.429,3.141c1.078,1.896,2.176,3.788,3.271,5.689
			c2.125,3.719,2.122,2.578-0.018,6.309c-1.07,1.871-2.151,3.749-3.217,5.621c-2.142,3.726-1.166,3.154-5.426,3.155
			c-2.175,0.007-4.341,0.009-6.521,0.009C6.467,25.959,7.434,26.522,5.311,22.794L5.311,22.794z M8.975,22.759
			C4.18,19.969,2.54,13.791,5.311,8.957c2.771-4.846,8.9-6.5,13.7-3.712c4.811,2.8,6.449,8.978,3.674,13.82
			C19.911,23.899,13.78,25.556,8.975,22.759L8.975,22.759z M9.386,22.041c-4.401-2.562-5.919-8.239-3.377-12.672
			c2.546-4.447,8.186-5.962,12.584-3.4c4.415,2.566,5.922,8.24,3.372,12.685C19.423,23.087,13.797,24.604,9.386,22.041L9.386,22.041
			z M10.395,20.28c-3.438-1.998-4.612-6.431-2.631-9.89c1.99-3.473,6.388-4.658,9.82-2.666c3.45,2.01,4.627,6.441,2.637,9.912
			C18.235,21.098,13.842,22.287,10.395,20.28L10.395,20.28z M10.799,19.571c3.051,1.776,6.951,0.713,8.712-2.354
			c1.763-3.073,0.719-7.005-2.337-8.775c-3.051-1.774-6.945-0.724-8.707,2.354C6.711,13.861,7.758,17.806,10.799,19.571
			L10.799,19.571z"/>
		<circle fill="#444444" cx="13.982" cy="14.085" r="9.333"/>
	</g>
	<circle cx="14.001" cy="14.084" r="6.458"/>
</g>
</svg>

<?xml version="1.0" encoding="UTF-8" standalone="no"?>
<!DOCTYPE svg PUBLIC "-//W3C//DTD SVG 1.1//EN" "http://www.w3.org/Graphics/SVG/1.1/DTD/svg11.dtd">
<svg width="28px" height="28px" version="1.1" xmlns="http://www.w3.org/2000/svg" xmlns:xlink="http://www.w3.org/1999/xlink" xml:space="preserve" xmlns:serif="http://www.serif.com/" style="fill-rule:evenodd;clip-rule:evenodd;stroke-miterlimit:10;">
    <g id="IOPortB_3_">
        <g>
            <path d="M5.311,22.794C4.229,20.928 3.16,19.037 2.09,17.175C-0.039,13.46 -0.039,14.582 2.092,10.863C3.174,8.971 4.253,7.062 5.334,5.17C7.469,1.452 6.5,2.014 10.772,2.021C12.908,2.025 15.07,2.029 17.203,2.035C21.469,2.023 20.503,1.46 22.632,5.176C23.71,7.072 24.808,8.964 25.903,10.865C28.028,14.584 28.025,13.443 25.885,17.174C24.815,19.045 23.734,20.923 22.668,22.795C20.526,26.521 21.502,25.949 17.242,25.95C15.067,25.957 12.901,25.959 10.721,25.959C6.467,25.959 7.434,26.522 5.311,22.794ZM8.975,22.759C4.18,19.969 2.54,13.791 5.311,8.957C8.082,4.111 14.211,2.457 19.011,5.245C23.822,8.045 25.46,14.223 22.685,19.065C19.911,23.899 13.78,25.556 8.975,22.759ZM9.386,22.041C4.985,19.479 3.467,13.802 6.009,9.369C8.555,4.922 14.195,3.407 18.593,5.969C23.008,8.535 24.515,14.209 21.965,18.654C19.423,23.087 13.797,24.604 9.386,22.041ZM10.395,20.28C6.957,18.282 5.783,13.849 7.764,10.39C9.754,6.917 14.152,5.732 17.584,7.724C21.034,9.734 22.211,14.165 20.221,17.636C18.235,21.098 13.842,22.287 10.395,20.28ZM10.799,19.571C13.85,21.347 17.75,20.284 19.511,17.217C21.274,14.144 20.23,10.212 17.174,8.442C14.123,6.668 10.229,7.718 8.467,10.796C6.711,13.861 7.758,17.806 10.799,19.571Z" style="fill:#999;fill-rule:nonzero;stroke:#201e1e;stroke-width:0.45px;"/>
            <circle cx="13.982" cy="14.085" r="9.333" style="fill:#444;stroke:#1a1a1a;stroke-width:2px;stroke-linejoin:round;stroke-miterlimit:1.41421;"/>
        </g>
        <circle cx="14.001" cy="14.084" r="6.458"/>
    </g>
</svg>
